assets/images/gallery-jumbotron-image.svg

<svg height="726" viewBox="0 0 952 726" width="952" xmlns="http://www.w3.org/2000/svg"><g fill="none"><path d="m762.63464 656.14285h-514.78183c-136.43363-30.21385-247.85292495-134.28046-247.85292495-289.90412-.01971301-23.540722 2.52554071-47.013526 7.59081495-70.00285l414.93681-66.83757 320.09807-51.55705c22.995664 15.043579 44.87833 31.723353 65.47827 49.90995l-306.39523 116.87646-144.54025 55.139 162.32131-40.3447 336.9067-83.73547c20.466825 22.874569 39.068056 47.352161 55.62516 73.19784l-101.8836 76.17463 115.1103-54.48412c.487093.84.97211 1.681383 1.45505 2.52415 72.2224 126.02912-18.81229 283.04385-164.06865 283.04385z" fill="#f2f2f2"/><path d="m680.37217 142.46778c-77.92093 16.09417-173.72217 36.43519-272.22227 57.57992-142.41689 30.581-290.46966 62.85872-398.25719 86.45427l.07156-.27946c4.6193368-17.662712 14.1630387-33.648994 27.519-46.096 81.730213-77.013582 184.36223-128.207125 295.04765-147.17176h.00993c32.064469-5.4666189 64.534243-8.2083961 97.06137-8.1965176 86.895227-.122025 172.669094 19.6168726 250.76995 57.7095476z" fill="#f2f2f2"/><path d="m97.213 0v725.3417h710.5723v-725.3417zm644.93052 512.00591h-577.6477v-449.64622h577.6477z" fill="#ffb810"/><path d="m490.03476 189.09236c-17.51754-29.59923-52.1746-30.97868-52.1746-30.97868s-33.77132-4.31865-55.43542 40.76134c-20.19266 42.01824-48.06111 82.58772-4.48659 92.42389l7.87082-24.49753 4.87436 26.32134c6.204175.446222 12.42812.552594 18.64392.31864 46.66479-1.50662 91.106.44079 89.675-16.3045-1.90218-22.26049 7.8879-59.56413-8.96749-88.0445z" fill="#2f2e41"/><path d="m370.44692 470.15927-59.07761 41.02611s-34.46193 36.103-9.84626 36.103 34.46195-31.17986 34.46195-31.17986l75.488-32.82089z" fill="#ffb8b8"/><path d="m394.24207 310.15742s-51.69291 160.00185-35.28246 168.20707 52.51339 13.12836 52.51339 13.12836z" fill="#6b6b6a"/><path d="m556.75476 512.00591h-116.36653l82.67583-41.84664c1.823121 1.181836 3.571435 2.47525 5.23494 3.87284 12.259495 10.319929 21.993443 23.309742 28.45576 37.9738z" fill="#2f2e41"/><circle cx="427.06296" cy="226.46415" fill="#ffb8b8" r="42.66716"/><path d="m426.24243 261.74661s9.84627 31.17985 0 42.66716 54.15448-16.41045 54.15448-16.41045-22.97463-32.82089-16.41045-47.59029z" fill="#ffb8b8"/><path d="m520.76656 404.20568-3.44615 22.46591s1.7395 5.10362 3.85641 12.5376c2.757 9.69853 6.15392 23.36846 7.12218 34.82292 1.001 11.61862-.50872 20.9726-7.6965 21.56335-10.30581.85328-15.672 7.10565-21.02178 16.41045h-118.71321c.3118-5.12.68931-10.437 1.13233-15.90173.246193-3.282087.5197-6.607947.82052-9.97758.32823-3.87284 11.95647-76.61962 3.21648-92.2759-18.04658-32.32755 4.92316-50.87238 4.92316-50.87238s3.28209-24.61567 3.28209-32.8209c0-6.433 25.20642-13.86684 36.103-16.78795.70563-.18049 1.32924-.361 1.90356-.49229 1.88724-.4923 3.01957-.77125 3.01957-.77125l8.61548-3.52828s24.20541-4.67694 25.84646-7.959c.59075-1.1816 2.24822-2.14976 4.20107-2.98671 3.46258-1.477 7.877-2.52717 8.92728-3.57747 1.499448-1.724162 2.855094-3.568293 4.05333-5.51388 2.98672-3.6596 7.25349-5.85854 12.07817-7.05657 17.6248-4.44717 42.94611 4.36523 42.94611 4.36523l-8.86168 57.84682z" fill="#6b6b6a"/><path d="m572.2954 368.41451-59.0776 41.02611s-34.46194 36.103-9.84627 36.103 34.46194-31.17985 34.46194-31.17985l75.488-32.82089z" fill="#ffb8b8"/><path d="m470.80273 186.23907-34.2395-17.935-21.48191 3.33338c-15.571775 2.416308-28.087192 14.099956-31.567 29.46907l-4.017 17.74164 24.35213-.93663 6.80307-15.87383v15.61215l11.23664-.43222 6.52183-25.272 4.07608 26.90253 39.94618-.81528z" fill="#2f2e41"/><path d="m530.44877 269.13131 11.48731-3.28209s116.51416 47.59029 113.23207 88.61641 1.64105 41.02611-18.05149 42.66716-77.12909-18.05149-75.48805-21.33358 13.12839-19.69254 13.12839-19.69254l-44.30823-34.46193z" fill="#6b6b6a"/><circle cx="469.73012" cy="226.46415" fill="#ffb8b8" r="6.56418"/><path d="m664.70292 516.24021c-.33387-.54556-8.206-13.68994-10.93519-40.98457-2.50328-25.04138-.89362-67.25059 20.99664-126.129 41.47044-111.54114-9.5571-201.53868-10.0785-202.43515l2.51749-1.46049c.13213.22732 13.29924 23.17316 21.07761 59.71091 10.277663 48.441355 6.535179 98.808667-10.78885 145.19911-41.3994 111.35077-10.6212 164.06327-10.30581 164.58325z" fill="#b2b2b2"/><circle cx="648.48697" cy="121.22962" fill="#ffe9b7" r="18.91245"/><circle cx="708.13394" cy="191.06022" fill="#b2b2b2" r="18.91245"/><circle cx="667.39942" cy="237.61395" fill="#ffe9b7" r="18.91245"/><circle cx="716.86276" cy="276.89366" fill="#ffe9b7" r="18.91245"/><g fill="#b2b2b2"><circle cx="652.85138" cy="337.99544" r="18.91245"/><path d="m676.12825 516.93635s-18.91246-46.55373 37.8249-81.469z"/><path d="m652.86886 516.09185s-8.60723-49.506-75.22574-49.08172z"/></g></g></svg>

<?xml version="1.0" encoding="UTF-8"?>
<svg width="952px" height="726px" viewBox="0 0 952 726" version="1.1" xmlns="http://www.w3.org/2000/svg" xmlns:xlink="http://www.w3.org/1999/xlink">
    <!-- Generator: Sketch 61 (89581) - https://sketch.com -->
    <title>Slice 1</title>
    <desc>Created with Sketch.</desc>
    <g id="Page-1" stroke="none" stroke-width="1" fill="none" fill-rule="evenodd">
        <g id="undraw_polaroid_gg6n" fill-rule="nonzero">
            <path d="M762.63464,656.14285 L247.85281,656.14285 C111.41918,625.929 -0.000114954478,521.86239 -0.000114954478,366.23873 C-0.0198279584,342.698008 2.52542576,319.225204 7.5907,296.23588 L422.52751,229.39831 L742.62558,177.84126 C765.621244,192.884839 787.50391,209.564613 808.10385,227.75121 L501.70862,344.62767 L357.16837,399.76667 L519.48968,359.42197 L856.39638,275.6865 C876.863205,298.561069 895.464436,323.038661 912.02154,348.88434 L810.13794,425.05897 L925.24824,370.57485 C925.735333,371.41485 926.22035,372.256233 926.70329,373.099 C998.92569,499.12812 907.891,656.14285 762.63464,656.14285 Z" id="Path" fill="#F2F2F2"></path>
            <path d="M680.37217,142.46778 C602.45124,158.56195 506.65,178.90297 408.1499,200.0477 C265.73301,230.6287 117.68024,262.90642 9.89271,286.50197 L9.96427,286.22251 C14.5836068,268.559798 24.1273087,252.573516 37.48327,240.12651 C119.213483,163.112928 221.8455,111.919385 332.53092,92.95475 L332.54085,92.95475 C364.605319,87.4881311 397.075093,84.7463539 429.60222,84.7582324 C516.497447,84.6362074 602.271314,104.375105 680.37217,142.46778 L680.37217,142.46778 Z" id="Path" fill="#F2F2F2"></path>
            <path d="M97.213,0 L97.213,725.3417 L807.7853,725.3417 L807.7853,0 L97.213,0 Z M742.14352,512.00591 L164.49582,512.00591 L164.49582,62.35969 L742.14352,62.35969 L742.14352,512.00591 Z" id="Shape" fill="#FFB810"></path>
            <path d="M490.03476,189.09236 C472.51722,159.49313 437.86016,158.11368 437.86016,158.11368 C437.86016,158.11368 404.08884,153.79503 382.42474,198.87502 C362.23208,240.89326 334.36363,281.46274 377.93815,291.29891 L385.80897,266.80138 L390.68333,293.12272 C396.887505,293.568942 403.11145,293.675314 409.32725,293.44136 C455.99204,291.93474 500.43325,293.88215 499.00225,277.13686 C497.10007,254.87637 506.89015,217.57273 490.03476,189.09236 Z" id="Path" fill="#2F2E41"></path>
            <path d="M370.44692,470.15927 L311.36931,511.18538 C311.36931,511.18538 276.90738,547.28838 301.52305,547.28838 C326.13872,547.28838 335.985,516.10852 335.985,516.10852 L411.473,483.28763 L370.44692,470.15927 Z" id="Path" fill="#FFB8B8"></path>
            <path d="M394.24207,310.15742 C394.24207,310.15742 342.54916,470.15927 358.95961,478.36449 C375.37006,486.56971 411.473,491.49285 411.473,491.49285 L394.24207,310.15742 Z" id="Path" fill="#6B6B6A"></path>
            <path d="M556.75476,512.00591 L440.38823,512.00591 L523.06406,470.15927 C524.887181,471.341106 526.635495,472.63452 528.299,474.03211 C540.558495,484.352039 550.292443,497.341852 556.75476,512.00591 Z" id="Path" fill="#2F2E41"></path>
            <circle id="Oval" fill="#FFB8B8" cx="427.06296" cy="226.46415" r="42.66716"></circle>
            <path d="M426.24243,261.74661 C426.24243,261.74661 436.0887,292.92646 426.24243,304.41377 C416.39616,315.90108 480.39691,288.00332 480.39691,288.00332 C480.39691,288.00332 457.42228,255.18243 463.98646,240.41303 L426.24243,261.74661 Z" id="Path" fill="#FFB8B8"></path>
            <path d="M520.76656,404.20568 L517.32041,426.67159 C517.32041,426.67159 519.05991,431.77521 521.17682,439.20919 C523.93382,448.90772 527.33074,462.57765 528.299,474.03211 C529.3,485.65073 527.79028,495.00471 520.6025,495.59546 C510.29669,496.44874 504.9305,502.70111 499.58072,512.00591 L380.86751,512.00591 C381.17931,506.88591 381.55682,501.56891 381.99984,496.10418 C382.246033,492.822093 382.51954,489.496233 382.82036,486.1266 C383.14859,482.25376 394.77683,409.50698 386.03684,393.8507 C367.99026,361.52315 390.96,342.97832 390.96,342.97832 C390.96,342.97832 394.24209,318.36265 394.24209,310.15742 C394.24209,303.72442 419.44851,296.29058 430.34509,293.36947 C431.05072,293.18898 431.67433,293.00847 432.24865,292.87718 C434.13589,292.38488 435.26822,292.10593 435.26822,292.10593 L443.8837,288.57765 C443.8837,288.57765 468.08911,283.90071 469.73016,280.61865 C470.32091,279.43705 471.97838,278.46889 473.93123,277.63194 C477.39381,276.15494 481.80823,275.10477 482.85851,274.05447 C484.357958,272.330308 485.713604,270.486177 486.91184,268.54059 C489.89856,264.88099 494.16533,262.68205 498.99001,261.48402 C516.61481,257.03685 541.93612,265.84925 541.93612,265.84925 L533.07444,323.69607 L520.76656,404.20568 Z" id="Path" fill="#6B6B6A"></path>
            <path d="M572.2954,368.41451 L513.2178,409.44062 C513.2178,409.44062 478.75586,445.54362 503.37153,445.54362 C527.9872,445.54362 537.83347,414.36377 537.83347,414.36377 L613.32147,381.54288 L572.2954,368.41451 Z" id="Path" fill="#FFB8B8"></path>
            <path d="M470.80273,186.23907 L436.56323,168.30407 L415.08132,171.63745 C399.509545,174.053758 386.994128,185.737406 383.51432,201.10652 L379.49732,218.84816 L403.84945,217.91153 L410.65252,202.0377 L410.65252,217.64985 L421.88916,217.21763 L428.41099,191.94563 L432.48707,218.84816 L472.43325,218.03288 L470.80273,186.23907 Z" id="Path" fill="#2F2E41"></path>
            <path d="M530.44877,269.13131 L541.93608,265.84922 C541.93608,265.84922 658.45024,313.43951 655.16815,354.46563 C651.88606,395.49175 656.8092,395.49174 637.11666,397.13279 C617.42412,398.77384 559.98757,379.0813 561.62861,375.79921 C563.26965,372.51712 574.757,356.10667 574.757,356.10667 L530.44877,321.64474 L530.44877,269.13131 Z" id="Path" fill="#6B6B6A"></path>
            <circle id="Oval" fill="#FFB8B8" cx="469.73012" cy="226.46415" r="6.56418"></circle>
            <path d="M664.70292,516.24021 C664.36905,515.69465 656.49692,502.55027 653.76773,475.25564 C651.26445,450.21426 652.87411,408.00505 674.76437,349.12664 C716.23481,237.5855 665.20727,147.58796 664.68587,146.69149 L667.20336,145.231 C667.33549,145.45832 680.5026,168.40416 688.28097,204.94191 C698.558633,253.383265 694.816149,303.750577 677.49212,350.14102 C636.09272,461.49179 666.87092,514.20429 667.18631,514.72427 L664.70292,516.24021 Z" id="Path" fill="#B2B2B2"></path>
            <circle id="Oval" fill="#FFE9B7" cx="648.48697" cy="121.22962" r="18.91245"></circle>
            <circle id="Oval" fill="#B2B2B2" cx="708.13394" cy="191.06022" r="18.91245"></circle>
            <circle id="Oval" fill="#FFE9B7" cx="667.39942" cy="237.61395" r="18.91245"></circle>
            <circle id="Oval" fill="#FFE9B7" cx="716.86276" cy="276.89366" r="18.91245"></circle>
            <circle id="Oval" fill="#B2B2B2" cx="652.85138" cy="337.99544" r="18.91245"></circle>
            <path d="M676.12825,516.93635 C676.12825,516.93635 657.21579,470.38262 713.95315,435.46735 L676.12825,516.93635 Z" id="Path" fill="#B2B2B2"></path>
            <path d="M652.86886,516.09185 C652.86886,516.09185 644.26163,466.58585 577.64312,467.01013 L652.86886,516.09185 Z" id="Path" fill="#B2B2B2"></path>
        </g>
    </g>
</svg>
